app/assets/meetups/ixda.svg

<svg id="ixda-logo" viewBox="0 0 65 65"><path d="M14.567 64.335v-4.683h-1.677v-.855h4.326v.855h-1.678v4.683h-.971zM17.723 64.335v-4.01h.872v.581c.308-.382.789-.681 1.304-.681v.863l-.266-.025c-.373 0-.863.25-1.038.54v2.731h-.872zM20.289 62.326c0-1.154.78-2.101 2.059-2.101 1.279 0 2.061.946 2.061 2.101 0 1.146-.781 2.108-2.061 2.108-1.279.001-2.059-.962-2.059-2.108zm3.213 0c0-.706-.406-1.329-1.154-1.329-.738 0-1.153.623-1.153 1.329 0 .714.415 1.337 1.153 1.337.748 0 1.154-.623 1.154-1.337zM28.012 64.335v-2.508c0-.631-.324-.83-.814-.83-.439 0-.821.266-1.029.531v2.807h-.872v-4.01h.872v.539c.266-.315.789-.639 1.42-.639.863 0 1.296.465 1.296 1.287v2.822h-.873zM32.836 64.335v-.547c-.307.398-.764.646-1.287.646-1.021 0-1.777-.779-1.777-2.108 0-1.296.748-2.101 1.777-2.101.507 0 .972.224 1.287.656v-2.085h.872v5.538h-.872zm0-1.212v-1.586c-.19-.299-.623-.54-1.029-.54-.697 0-1.138.557-1.138 1.329 0 .78.44 1.337 1.138 1.337.406 0 .839-.24 1.029-.54zM37.553 64.335v-2.523c0-.631-.315-.814-.806-.814-.448 0-.83.266-1.029.531v2.807h-.872v-5.538h.872v2.067c.266-.315.78-.639 1.411-.639.864 0 1.296.447 1.296 1.27v2.84h-.872zM39.313 62.326c0-1.163.847-2.101 2.034-2.101 1.204 0 1.969.913 1.969 2.176v.215h-3.09c.066.598.516 1.105 1.271 1.105.399 0 .855-.158 1.146-.449l.398.573c-.407.382-.997.589-1.628.589-1.211.001-2.1-.837-2.1-2.108zm2.027-1.387c-.739 0-1.088.573-1.121 1.054h2.258c-.025-.472-.348-1.054-1.137-1.054zM44.08 59.295c0-.299.24-.54.539-.54.3 0 .54.241.54.54 0 .3-.24.54-.54.54-.299 0-.539-.24-.539-.54zm.1 5.04v-4.01h.872v4.01h-.872zM51.105 64.335v-2.615c0-.432-.191-.723-.665-.723-.39 0-.755.266-.93.531v2.807h-.872v-2.615c0-.432-.183-.723-.656-.723-.39 0-.747.274-.93.531v2.807h-.872v-4.01h.872v.539c.174-.24.697-.639 1.312-.639.598 0 .963.299 1.096.73.225-.357.756-.73 1.361-.73.731 0 1.154.398 1.154 1.212v2.897h-.87zM32.62.763l5.527 5.527-5.527 5.527-5.527-5.527zM48.089 46.226h7.647l-15.43-15.438 15.557-15.564h-7.774v-7.565l-15.46 15.457-15.537-15.541v7.649h-7.696l15.566 15.564-15.44 15.438h7.57v7.773l15.537-15.541 15.46 15.457zM8.504 6.68h7.69v7.649h-7.69zM49.003 6.68h7.69v7.649h-7.69zM49.003 47.116h7.69v7.648h-7.69zM8.504 47.116h7.69v7.648h-7.69z"></path></svg>

<?xml version="1.0" standalone="no"?><!-- Generator: Gravit.io --><svg xmlns="http://www.w3.org/2000/svg" xmlns:xlink="http://www.w3.org/1999/xlink" style="isolation:isolate" viewBox="0 0 65 65" width="65" height="65"><defs><clipPath id="_clipPath_gljs0YkJHMgsUgxwWVH8jf1SYCoNQ4rr"><rect width="65" height="65"/></clipPath></defs><g clip-path="url(#_clipPath_gljs0YkJHMgsUgxwWVH8jf1SYCoNQ4rr)"><path d=" M 14.567 64.335 L 14.567 59.652 L 12.89 59.652 L 12.89 58.797 L 17.216 58.797 L 17.216 59.652 L 15.538 59.652 L 15.538 64.335 L 14.567 64.335 L 14.567 64.335 Z  M 17.723 64.335 L 17.723 60.325 L 18.595 60.325 L 18.595 60.906 C 18.903 60.524 19.384 60.225 19.899 60.225 L 19.899 61.088 L 19.633 61.063 C 19.26 61.063 18.77 61.313 18.595 61.603 L 18.595 64.334 L 17.723 64.334 L 17.723 64.335 Z  M 20.289 62.326 C 20.289 61.172 21.069 60.225 22.348 60.225 C 23.627 60.225 24.409 61.171 24.409 62.326 C 24.409 63.472 23.628 64.434 22.348 64.434 C 21.069 64.435 20.289 63.472 20.289 62.326 Z  M 23.502 62.326 C 23.502 61.62 23.096 60.997 22.348 60.997 C 21.61 60.997 21.195 61.62 21.195 62.326 C 21.195 63.04 21.61 63.663 22.348 63.663 C 23.096 63.663 23.502 63.04 23.502 62.326 Z  M 28.012 64.335 L 28.012 61.827 C 28.012 61.196 27.688 60.997 27.198 60.997 C 26.759 60.997 26.377 61.263 26.169 61.528 L 26.169 64.335 L 25.297 64.335 L 25.297 60.325 L 26.169 60.325 L 26.169 60.864 C 26.435 60.549 26.958 60.225 27.589 60.225 C 28.452 60.225 28.885 60.69 28.885 61.512 L 28.885 64.334 L 28.012 64.334 L 28.012 64.335 Z  M 32.836 64.335 L 32.836 63.788 C 32.529 64.186 32.072 64.434 31.549 64.434 C 30.528 64.434 29.772 63.655 29.772 62.326 C 29.772 61.03 30.52 60.225 31.549 60.225 C 32.056 60.225 32.521 60.449 32.836 60.881 L 32.836 58.796 L 33.708 58.796 L 33.708 64.334 L 32.836 64.334 L 32.836 64.335 Z  M 32.836 63.123 L 32.836 61.537 C 32.646 61.238 32.213 60.997 31.807 60.997 C 31.11 60.997 30.669 61.554 30.669 62.326 C 30.669 63.106 31.109 63.663 31.807 63.663 C 32.213 63.663 32.646 63.423 32.836 63.123 Z  M 37.553 64.335 L 37.553 61.812 C 37.553 61.181 37.238 60.998 36.747 60.998 C 36.299 60.998 35.917 61.264 35.718 61.529 L 35.718 64.336 L 34.846 64.336 L 34.846 58.798 L 35.718 58.798 L 35.718 60.865 C 35.984 60.55 36.498 60.226 37.129 60.226 C 37.993 60.226 38.425 60.673 38.425 61.496 L 38.425 64.336 L 37.553 64.336 L 37.553 64.335 Z  M 39.313 62.326 C 39.313 61.163 40.16 60.225 41.347 60.225 C 42.551 60.225 43.316 61.138 43.316 62.401 L 43.316 62.616 L 40.226 62.616 C 40.292 63.214 40.742 63.721 41.497 63.721 C 41.896 63.721 42.352 63.563 42.643 63.272 L 43.041 63.845 C 42.634 64.227 42.044 64.434 41.413 64.434 C 40.202 64.435 39.313 63.597 39.313 62.326 L 39.313 62.326 Z  M 41.34 60.939 C 40.601 60.939 40.252 61.512 40.219 61.993 L 42.477 61.993 C 42.452 61.521 42.129 60.939 41.34 60.939 Z  M 44.08 59.295 C 44.08 58.996 44.32 58.755 44.619 58.755 C 44.919 58.755 45.159 58.996 45.159 59.295 C 45.159 59.595 44.919 59.835 44.619 59.835 C 44.32 59.835 44.08 59.595 44.08 59.295 Z  M 44.18 64.335 L 44.18 60.325 L 45.052 60.325 L 45.052 64.335 L 44.18 64.335 L 44.18 64.335 Z  M 51.105 64.335 L 51.105 61.72 C 51.105 61.288 50.914 60.997 50.44 60.997 C 50.05 60.997 49.685 61.263 49.51 61.528 L 49.51 64.335 L 48.638 64.335 L 48.638 61.72 C 48.638 61.288 48.455 60.997 47.982 60.997 C 47.592 60.997 47.235 61.271 47.052 61.528 L 47.052 64.335 L 46.18 64.335 L 46.18 60.325 L 47.052 60.325 L 47.052 60.864 C 47.226 60.624 47.749 60.225 48.364 60.225 C 48.962 60.225 49.327 60.524 49.46 60.955 C 49.685 60.598 50.216 60.225 50.821 60.225 C 51.552 60.225 51.975 60.623 51.975 61.437 L 51.975 64.334 L 51.105 64.334 L 51.105 64.335 Z  M 32.62 0.763 L 38.147 6.29 L 32.62 11.817 L 27.093 6.29 L 32.62 0.763 Z  M 48.089 46.226 L 55.736 46.226 L 40.306 30.788 L 55.863 15.224 L 48.089 15.224 L 48.089 7.659 L 32.629 23.116 L 17.092 7.575 L 17.092 15.224 L 9.396 15.224 L 24.962 30.788 L 9.522 46.226 L 17.092 46.226 L 17.092 53.999 L 32.629 38.458 L 48.089 53.915 L 48.089 46.226 Z  M 8.504 6.68 L 16.194 6.68 L 16.194 14.329 L 8.504 14.329 L 8.504 6.68 Z  M 49.003 6.68 L 56.693 6.68 L 56.693 14.329 L 49.003 14.329 L 49.003 6.68 Z  M 49.003 47.116 L 56.693 47.116 L 56.693 54.764 L 49.003 54.764 L 49.003 47.116 Z  M 8.504 47.116 L 16.194 47.116 L 16.194 54.764 L 8.504 54.764 L 8.504 47.116 Z " fill="rgb(0,0,0)"/></g></svg>
